X: 2
T: The Old Blackthorn
R: reel
M: 4/4
L: 1/8
K: Dmaj
|: d2 FB AFEF | D2 dc BABc | dF F2 AF F2 | AFEF D2 fe |d2 FB AFEF | D2 dc BABc | dF F2 AF F2 | AFEF D4 :||:defd (3efg ec | A2 cA EAcA | defg e2 fg | abag fgfe |defd (3efg ec | A2 cA eAcA |defg e2 fg | abag fgfe :|


Tune 720	Setting 26755

